client/public/images/user.svg

<svg height="10" viewBox="0 0 10 10" width="10" xmlns="http://www.w3.org/2000/svg"><path d="m5.0016274 0c-1.37577633 0-2.50081362 1.12512864-2.50081362 2.50101728s1.12503729 2.49776201 2.50081362 2.49776201c1.37577665 0 2.49674512-1.12187337 2.49674512-2.49776201s-1.12096847-2.50101728-2.49674512-2.50101728zm0 .83340109c.92541005 0 1.66341176.74213101 1.66341176 1.66761619 0 .92548519-.73800171 1.66354691-1.66341176 1.66354691-.92540958 0-1.66748026-.73806172-1.66748026-1.66354691 0-.92548518.74207068-1.66761619 1.66748026-1.66761619zm-.0016274 4.99959315c-1.35710011 0-2.58638685.44309149-3.49202476 1.12557982-.90563783.6824885-1.50797524 1.62030769-1.50797524 2.62472532 0 .23012786.18655753.41670062.41666666.41670062h9.16666658c.23010917 0 .41666676-.18657273.41666676-.41670062 0-1.00441763-.60233762-1.94223682-1.50797554-2.62472532-.90563745-.68248833-2.1349245-1.12557982-3.49202446-1.12557982zm.00000535.83340109c1.17420501 0 2.23670623.39030976 2.98990873.95792298.59860754.45111054.91645698 1.00173573 1.05143241 1.54228044h-8.08268767c.13497559-.54054471.45282504-1.0911699 1.0514323-1.54228044.75320249-.56761322 1.81570372-.95792298 2.98990888-.95792298z" fill="#3a55d8"/></svg>

<?xml version="1.0" encoding="UTF-8"?>
<svg width="10px" height="10px" viewBox="0 0 10 10" version="1.1" xmlns="http://www.w3.org/2000/svg" xmlns:xlink="http://www.w3.org/1999/xlink">
    <title>user</title>
    <g id="Page-1" stroke="none" stroke-width="1" fill="none" fill-rule="evenodd">
        <g id="Login-Page-sign" transform="translate(-38.000000, -446.000000)" fill="#3A55D8" fill-rule="nonzero">
            <g id="user" transform="translate(38.000000, 446.000000)">
                <path d="M5.0016274,0 C3.62585107,0 2.50081378,1.12512864 2.50081378,2.50101728 C2.50081378,3.87690592 3.62585107,4.99877929 5.0016274,4.99877929 C6.37740405,4.99877929 7.49837252,3.87690592 7.49837252,2.50101728 C7.49837252,1.12512864 6.37740405,0 5.0016274,0 Z M5.0016274,0.833401089 C5.92703745,0.833401089 6.66503916,1.5755321 6.66503916,2.50101728 C6.66503916,3.42650247 5.92703745,4.16456419 5.0016274,4.16456419 C4.07621782,4.16456419 3.33414714,3.42650247 3.33414714,2.50101728 C3.33414714,1.5755321 4.07621782,0.833401089 5.0016274,0.833401089 L5.0016274,0.833401089 Z M5,5.83299424 C3.64289989,5.83299424 2.41361315,6.27608573 1.50797524,6.95857406 C0.602337414,7.64106256 0,8.57888175 0,9.58329938 C0,9.81342724 0.186557531,10 0.416666664,10 L9.58333324,10 C9.81344241,10 10,9.81342727 10,9.58329938 C10,8.57888175 9.39766238,7.64106256 8.49202446,6.95857406 C7.58638701,6.27608573 6.35709996,5.83299424 5,5.83299424 L5,5.83299424 Z M5.00000535,6.66639533 C6.17421036,6.66639533 7.23671158,7.05670509 7.98991408,7.62431831 C8.58852162,8.07542885 8.90637106,8.62605404 9.04134649,9.16659875 L0.95865882,9.16659875 C1.09363441,8.62605404 1.41148386,8.07542885 2.01009112,7.62431831 C2.76329361,7.05670509 3.82579484,6.66639533 5,6.66639533 L5.00000535,6.66639533 Z" id="Shape"></path>
            </g>
        </g>
    </g>
</svg>
